X: 021
Q: "Slow"
M: 6/8
L: 1/8
K: A
V: 1
|:\
(Ac).B AGF | (FE)~.E ECA, | .D.F.A ECA, | {C}B,.A,.B, A,3 :|
|:\
~f3 ecA | ~d3 cAF | ~B>cd EFG | [AC][AC][AC] [A3C3] :|
V: 2 clef=bass middle=d
|:\
|:\


